X:1
T:Contre raison
T:Claudin de Sermisy
T:Source : Premier livre contenant 31 chansons à 4, eslevées de plusieurs livres---Paris---P.Attaignant-1535. Editor : André Vierendeels (26/04/18) Notes : Original clefs : C1, C3, C3, F3 Original note values have been halved Original note values have been quartered in 3-beat measures Editorial accidentals above the staff Square brackets indicate ligatures
T:Contre raison
T:©
T:©
T:©
C:Claudin de Sermisy
Z:©
%%score [ 1 2 3 4 ]
L:1/8
Q:1/4=120
M:2/2
K:C
V:1 treble nm="Soprano" snm="S"
V:2 treble nm="Alto" snm="A"
V:3 treble-8 nm="Tenor" snm="T"
V:4 bass nm="Bass" snm="B"
V:1
 A8 | A4 c4 | B4 z2 B2 | B2 B2 c3 B/A/ | G2 G2 A4 | G8 | z4 z2 A2 | A2 A2 E4 | z2 G2 GFGA | %9
w: Con-|tre rai-|son vous|m'es- tes fort _ _|_ es- tran-|ge,|es-|se bien faict,|en au- * * *|
 B2 c2 B2 A2 | d3 c B2 A2 | G2 A4 G2 | A8- | A8 | z2 A4 A2 | c4 G2 G2 | A3 B c2 d2- | dc c4 B2 | %18
w: * rez vous lou-|an- * * *||ge?|_|D'ain- sy|m'a- voir sou-|dain _ _ des-|* * he- ri-|
[M:3/4] c4 z2 | c2 c2 c2 | B4 A2 | d4 c2 | B2 A3 G |"^#" G4 F2 |[M:2/2] G8 | z4 z2 A2 | A2 A2 E4 | %27
w: té|de vos- tre'a-|mour sans|l'a- voir|me- * *|ri- *|té,|vous|faict il mal|
 z2 G2 G3 A | B2 c2 B2 A2 | d3 c B2 A2 | G2 A4 G2 | A2 A2 A2 A2 | G2 G2 G3 A | B2 c2 B2 A2 | %34
w: si'à vous _|_ ser- vir me|ran- * * *||ge, vous faict il|mal si'à vous _|_ ser- vir me|
 d3 c B2 A2 | G2 A4 G2 | A8 |] %37
w: ran- * * *||ge?|
V:2
 E8 | F4 E3 F | G4 z2 G2 | G2 G2 G3 F | E2 E2 C2 D2 | E2 G2 G2 G2 | D3 E F4 | E4 z2 E2 | %8
w: Con-|tre rai- *|son vous|m'es- tes fort _|_ es- tran- *|ge, es- se bien|faict, _ _|_ es-|
 E2 E2 B,A,B,C | D2 E2 D2 F2- | F2 F2 F4 | E2 D2 E4 | C3 D E4- | E4 z2 C2 | F4 F4 | E6 D2 | %16
w: se bien faict , _ _|_ en au- rez|_ vous lou-|an- * *|* * ge?|_ D'ain-|sy m'a-|voir sou-|
 F4 E2 D2 | E2 F2 G4 |[M:3/4] E4 z2 | G2 G2 G2 | G4 F2 | A4 G2 | G2 E2 FE | DC D4 | %24
w: dain des he-|* * ri-|té|de vo- stre'a-|mour sans|l'a- voir|me- * * *|* * ri-|
[M:2/2] B,2 G2 G2 G2 | D3 E F4 | E4 z2 E2 | E2 E2 B,A,B,C | D2 E2 D2 F2- | F2 F2 F4 | E2 D2 E4 | %31
w: té, vous faict il|mal, _ _|_ vous|faict il mal _ _ _|_ si'à vous ser-|* vir me|ran- * *|
 C4 z2 E2 | E2 E2 B,A,B,C | D2 E2 D2 F2- | F2 F2 F4 | E2 D2 E4 | C8 |] %37
w: ge, vous|faict il mal _ _ _|_ si'à vous ser-|* vir me|ran- * *|ge?|
V:3
 c8 | c4 c4 | d4 z2 d2 | d2 d2 e3 d | B2 c2 A4 | B8 | z2 d2 d2 d2 | A3 B c4 | B4 z2 G2 | %9
w: Con-|tre ra-|son vous|m'es- tes fort _|_ es- tran-|ge,|es- se bien|faict, _ _|_ en|
 G3 A B2 c2 | B2 A2 d3 c | B2 A2 B4 | A4 z2 A2- | A2 A2 cBAG | AGFE F4 | G2 c2 c2 B2 | %16
w: au- * * rez|vous lou- an- *||ge? D'ain-|* sy m'a- * * *||voir, sou- dain des-|
 c2 d2 e2 f2 | e2 c2 d4 |[M:3/4] c4 z2 | e2 e2 e2 | d4 f2 | f4 e2 | d2 c3 B | G2 A4 | %24
w: he- * * *|* * ri-|té|de vo- stre'a-|mour sans|l'a- voir|me- ri- *|* té,|
[M:2/2] B4 G4 | z2 d2 d2 d2 | A3 B c4 | B4 z2 G2 | G3 A B2 c2 | B2 A2 d3 c | B2 A2 B4 | %31
w: _ _|vous faict il|mal _ _|_ si'à|vous _ _ ser-|vir me ran- *||
 A2 c2 c2 c2 | B4 z2 G2 | G3 A B2 c2 | B2 A2 d3 c | B2 A2 B4 | A8 |] %37
w: ge, vous faict il|mal si'à|vous _ _ ser-|vir me ran- *||ge?|
V:4
 A,8 | F,4 A,4 | G,4 z2 G,2 | G,2 G,2 C,3 D, | E,2 C,2 F,4 | E,4 z2 G,2 | G,2 G,2 D,4 | %7
w: Con-|tre rai-|son vous|m'es- tes fort _|_ es- tran-|ge, es-|se bien faict,|
 z2 A,2 A,2 A,2 | E,8 | z2 C,2 G,2 F,2 | D,6 D,2 | E,2 F,2 E,4 | A,,2 A,4 A,2 | C3 B, A,G, F,2- | %14
w: es- se bien|faict,|en au- rez|vous lou-|an- * *|ge? D'ain- sy|m'a- * * * *|
 F,E,D,C, D,4 | C,4 z2 G,2 | F,2 D,2 A,2 B,2 | C2 A,2 G,4 |[M:3/4] C,4 z2 | C,2 C,2 C,2 | G,4 D,2 | %21
w: |voir, sou-|dain des- he- *|* * ri-|té|de vo- stre'a-|mour sans|
 D,4 E,2 | G,2 A,2 F,2 | G,2 D,4 |[M:2/2] G,4 z2 G,2 | G,2 G,2 D,4 | z2 A,2 A,2 A,2 | E,8 | %28
w: l'a- voir|me- * *|* ri-|té, vous|faict il mal,|vous faict il|mal,|
 z2 C,2 G,2 F,2 | D,6 D,2 | E,2 F,2 E,4 |"^#" A,,2 A,2 A,2 A,2 | E,8 | z2 C,2 G,2 F,2 | D,6 D,2 | %35
w: si'à vous ser-|vir me|ran- * *|ge, vous faict il|mal,|si'à vous ser-|vir me|
 E,2 F,2 E,4 | A,,8 |] %37
w: ran- * *|ge?|

